icons/sentry-filled.svg

<svg width="256" height="256" viewBox="0 0 256 256" fill="none" xmlns="http://www.w3.org/2000/svg">
<rect width="256" height="256" rx="60" fill="#584674"/>
<path d="M136.184 51.1767C138.71 52.6037 140.824 54.6592 142.321 57.1439L215.766 182.879C217.23 185.369 218.002 188.206 218 191.095C218.009 193.283 217.585 195.45 216.751 197.473C215.918 199.495 214.691 201.332 213.143 202.877C211.594 204.422 209.755 205.645 207.73 206.474C205.706 207.303 203.538 207.723 201.351 207.709H184.125C184.341 203.144 184.341 198.567 184.125 193.978H201.278C201.761 193.989 202.237 193.871 202.659 193.639C203.082 193.406 203.435 193.066 203.684 192.652C203.932 192.239 204.067 191.768 204.075 191.285C204.083 190.803 203.964 190.327 203.729 189.906C202.396 188.465 131.185 64.2072 129.275 63.1622C128.644 62.7927 127.892 62.6876 127.183 62.8698C126.475 63.0521 125.867 63.5068 125.492 64.1352L108.662 92.9652C127.686 105.222 143.159 122.256 153.537 142.366C163.915 162.476 168.833 184.958 167.8 207.565H123.437C124.461 192.641 121.576 177.709 115.067 164.242C108.557 150.774 98.6487 139.237 86.3187 130.769L77.994 145.184C87.7641 152.219 95.5517 161.658 100.603 172.587C105.654 183.516 107.797 195.564 106.824 207.565H54.4615C51.6071 207.548 48.804 206.804 46.317 205.402C44.4295 204.337 42.7726 202.906 41.4424 201.195C40.1123 199.483 39.1356 197.525 38.5689 195.432C38.0023 193.34 37.857 191.156 38.1416 189.007C38.4262 186.858 39.135 184.787 40.2267 182.915L50.7136 164.896C55.1302 166.428 59.2327 168.748 62.8222 171.743L52.2272 189.762C52.0167 190.165 51.9098 190.614 51.9162 191.068C51.9226 191.523 52.042 191.969 52.2636 192.366C52.4853 192.763 52.8023 193.098 53.186 193.342C53.5697 193.586 54.0081 193.73 54.4615 193.762H92.6973C91.2739 184.25 87.4816 175.247 81.6693 167.584C75.8569 159.92 68.211 153.841 59.4347 149.904L81.3816 111.957C96.9931 119.572 110.345 131.133 120.117 145.493C129.889 159.854 135.741 176.517 137.096 193.834H153.745C152.388 173.632 145.771 154.136 134.55 137.282C123.328 120.428 107.894 106.802 89.7783 97.7582L113.491 57.1439C114.988 54.6592 117.102 52.6037 119.628 51.1767C122.153 49.7498 125.005 49 127.906 49C130.807 49 133.659 49.7498 136.184 51.1767Z" fill="white"/>
</svg>

<svg xmlns="http://www.w3.org/2000/svg" width="256" height="256" fill="none"><rect width="256" height="256" fill="#584674" rx="60"/><path fill="#fff" d="M136.184 51.177a16.8 16.8 0 0 1 6.137 5.967l73.445 125.735a16.2 16.2 0 0 1 2.234 8.216 16.55 16.55 0 0 1-4.857 11.782 16.54 16.54 0 0 1-11.792 4.832h-17.226a146 146 0 0 0 0-13.731h17.153a2.737 2.737 0 0 0 2.451-4.072c-1.333-1.441-72.544-125.699-74.454-126.744a2.774 2.774 0 0 0-3.783.973l-16.83 28.83a129.3 129.3 0 0 1 59.138 114.6h-44.363a86.02 86.02 0 0 0-37.118-76.796l-8.325 14.415a69.91 69.91 0 0 1 28.83 62.381H54.462a16.8 16.8 0 0 1-8.145-2.163 16.36 16.36 0 0 1-6.09-22.487l10.487-18.019a38.7 38.7 0 0 1 12.108 6.847l-10.595 18.019a2.738 2.738 0 0 0 2.235 4h38.235a57.37 57.37 0 0 0-33.262-43.858l21.947-37.947a99.75 99.75 0 0 1 55.714 81.877h16.649a116.08 116.08 0 0 0-63.967-96.076l23.713-40.614a16.83 16.83 0 0 1 22.693-5.967"/></svg>
